!!!PDT:	1923
!!!LANG: Non-Tone
!!!LING_GROUP: Siouan
!!!REG: Dakotas
!!!COM: Anon.
!!!OTL: Young Dog Society Serenade
!!!ODT: <1918//
!!!MPN: Malitikikanaka [Sitting Rabbit]
!!!MLC: Fort Berthold Reservation, North Dakota, United States of America
!! Song was recorded during either the summer of 1912, 1915, or 1918.
!!!AGN: monody
!!!SOCIAL_FUNCTION: Mandan and Hidatsa Men's Young Dog Society
!!!AMT: irregular
!!!RWG: Transcribed pitches, durations, and meters are only approximate.
!! Drum Tempo: MM66
!! Drum-rhythm (approximate): (12^ 12r 12) (12^ 12r 12) (12^ 12r 12) (12^ 12 12)
**kern
*ICvox
*Imale
*clefF4
*k[b-e-a-d-]
*M2/4
*MM66
8e-
=1
8.e-
16e-
8e-
(24e-
24c
24f)
=2
8.e-
16e-
8e-
(24e-
24A-
24c)
=3
16A-
16A-
16.A-
32A-
16F
!Added dot to eighth:
8.E-
=4
8.A-
16A-
8A-
(24A-
24F
24B-)
*M3/4
=5
8.A-
16A-
(12A-
12F
12E-)
(12F
12E-
12E-)
*M2/4
=6
2E-;
*M3/4
=7
8.E-
16E-
4E-
16E-
16C
16F
16E-
*M2/4
=8
4E-
8E-
16C
16C
=9
2AA-
=10
2AA-
==
*-
!!!CNT: Mandan
!!!TXO: Mandan
!!!OCY: United States
!!!OCL: Frances Densmore
!!!YOR: Frances Densmore, "Mandan and Hidatsa Music",
!!!YOR: Bulletin 80, page 129, No. 60
!!!PPR: Smithsonian Institution, Bureau of American Ethnology
!!!PPR: Government Printing Office
!!!PDT: 1923
!!!PPP: Washington, DC, United States of America
!!!YEC: Electronic Copyright 2000 David Huron
!!!YER: August 2000
!!!YEN: United States of America
!!!ENC: David Huron
!!!RDT: August 17, 2000
!!!EEV: Release 1.0
!!!AIN: tom, vox
